!!!OTL: Graserin und Reiter Die Holvinger Maedchen,
!!!ARE: Europa, Mitteleuropa, Deutschland / France, Lothringen
!!!YOR: 7, S. 148
!!    1918 aufgezeichnet
!!!SCT: Q0149G
!!!YEM: Copyright 1995, estate of Helmut Schaffrath.
**kern
*ICvox
*Ivox
*M2/4
*k[f#]
*G:
{8d
=1
4g
8f#
8g
=2
4a
8g}
{8a
=3
8b
8g
8dd
8b
=4
4.a
8r}
=5
{4a
8dd
8cc
=6
8b
8a
8g
8e
=7
4.d
8r}
=8
{4g
4a
=9
4b
8b
8b
=10
4a}
{4b
=11
8dd
8cc
8b
8a
=12
4.g}
==
!!!AGN: Ballade, Verfuehrung, Verlassen des Elternhauses
!! Vierte Zeile = Refrain auf sinnfreie Silben.
!!!ONB: ESAC (Essen Associative Code) Database: BALLADE
!!!AMT: simple duple
!!!AIN: vox
!!!EED: Helmut Schaffrath
!!!EEV: 1.0
*-
